X: 25437
T: Marcha De Lousame
R: reel
M: 4/4
K: Gmajor
A2 AF GFED|B2 BA GDGB|A2 AF GFED|B2 BA G2 (3GAB|
c2 cB BAGF|d2d2d Bcd|e2 dc BABc|de dB G2 (3Bcd|
e2 dc BABc|d2d2d2 B2|e2 ed effd|g2 (3gfe de=fd|
e2 ed fafd|g2(3gfe de=fd|e=fed cdec|dedc BcdB|
cdcB ABcA|BcBA GABG|ABAG FGAF|G2G2G2 FG||

